X:19
T:Montagnards Laurentiens 2
M:4/4
K:G
b8 | b2g2f2e2 | d8 | d2B2d2g2 |\
f8 | f2 dd efed | b8 | b2 dd efed |
b8 | b2g2f2e2 | d8 | d2B2d2g2 |\
f6e2 | d2d2e2f2 | g8 |[1 g2d2e2d2 :|[2 d8 ||
A2f2A2f2 | A f2 A f4 | a2 ab ag e2 | fafe d2 B2 |
A2 f2 A2 f2 | A f2 A f4 | a2 ab ag e2 |[1 d2 (3dfa g4 :|[2 d8 |]
